icon-svg/radon.svg

<svg xmlns="http://www.w3.org/2000/svg" viewBox="0 0 24 24"><path fill="#44739e" d="m2.451 11.874 1.97-.039a.45.45 0 0 0 .381-.232.446.446 0 0 0-.4-.659l-1.511.03a9.1 9.1 0 0 1 4.027-7.311l2.804 4.633a3.73 3.73 0 0 0-1.414 2.565l-2.395.048a.445.445 0 0 0 .018.89l2.814-.056a.5.5 0 0 0 .106-.017l.03-.01a.4.4 0 0 0 .069-.031l.027-.016a.4.4 0 0 0 .078-.063l.006-.007a.5.5 0 0 0 .056-.077l.008-.01.007-.019a.4.4 0 0 0 .026-.067c0-.011.007-.021.01-.032a.5.5 0 0 0 .011-.1 2.89 2.89 0 0 1 1.369-2.481.4.4 0 0 0 .065-.053l.027-.021a.4.4 0 0 0 .067-.092.4.4 0 0 0 .042-.106q-.001-.022.006-.047l.008-.067c0-.014-.005-.027-.006-.041l-.011-.074c0-.01-.009-.019-.012-.029a.4.4 0 0 0-.035-.08L7.445 2.815a.5.5 0 0 0-.055-.073l-.062-.054-.035-.02-.039-.023a.4.4 0 0 0-.066-.023l-.014-.005a.44.44 0 0 0-.337.051 10.03 10.03 0 0 0-4.835 8.774.446.446 0 0 0 .454.436Zm13.932-9.006-.985 1.703a.445.445 0 0 0 .772.445l.755-1.307a9.1 9.1 0 0 1 4.174 7.227H15.69a3.73 3.73 0 0 0-1.464-2.537l1.201-2.074a.446.446 0 0 0-.771-.446l-1.417 2.437a.5.5 0 0 0-.041.1l-.006.03a.4.4 0 0 0-.01.077v.032a.5.5 0 0 0 .013.1v.009a.5.5 0 0 0 .037.088v.012l.013.016a.4.4 0 0 0 .044.057l.022.024a.5.5 0 0 0 .08.062 2.89 2.89 0 0 1 1.417 2.454l.011.083v.033a.4.4 0 0 0 .045.106.4.4 0 0 0 .069.092l.037.028a.4.4 0 0 0 .053.042l.038.016a.4.4 0 0 0 .069.029h.032l.085.011h6.292a.4.4 0 0 0 .09-.009h.006a.4.4 0 0 0 .078-.024c.013 0 .024-.013.036-.019l.04-.022a.4.4 0 0 0 .053-.044l.012-.01a.44.44 0 0 0 .146-.307 10.02 10.02 0 0 0-5.008-8.675.447.447 0 0 0-.608.163Zm-6.152 8.513a1.753 1.753 0 1 0 1.753-1.752 1.753 1.753 0 0 0-1.753 1.752m1.753-1.019a1.02 1.02 0 1 1-1.02 1.02 1.02 1.02 0 0 1 1.02-1.02m5.172 9.086-.985-1.703a.44.44 0 0 0-.386-.223.44.44 0 0 0-.222.06.446.446 0 0 0-.164.608l.757 1.308a9.12 9.12 0 0 1-8.344 0l2.705-4.687a3.7 3.7 0 0 0 2.928 0l1.202 2.075a.446.446 0 0 0 .771-.446l-1.407-2.437a.4.4 0 0 0-.066-.085l-.022-.021-.061-.046-.027-.016a.4.4 0 0 0-.093-.038h-.008a.4.4 0 0 0-.095-.013h-.033a.4.4 0 0 0-.072.01l-.033.007a.4.4 0 0 0-.093.039h-.006a2.89 2.89 0 0 1-2.832 0l-.077-.032c-.011 0-.021-.01-.032-.013a.5.5 0 0 0-.114-.014.4.4 0 0 0-.113.014l-.043.018-.063.025-.033.025a.4.4 0 0 0-.059.045l-.02.025-.053.068-3.145 5.446a.4.4 0 0 0-.042.087v.006l-.018.08v.085l.011.07v.015a.45.45 0 0 0 .207.266 10.03 10.03 0 0 0 10.016 0 .446.446 0 0 0 .162-.608Z"/></svg>

<?xml version="1.0" encoding="UTF-8"?>
<svg width="24px" fill="#44739e" height="24px" viewBox="0 0 24 24" version="1.1" xmlns="http://www.w3.org/2000/svg" xmlns:xlink="http://www.w3.org/1999/xlink">
            <path d="M 2.482,11.852 4.449,11.813 A 0.447,0.447 0 0 0 4.83,11.582 0.445,0.445 0 0 0 4.43,10.924 l -1.508,0.03 a 9.088,9.088 0 0 1 4.02,-7.3 l 2.8,4.626 A 3.717,3.717 0 0 0 8.33,10.841 l -2.391,0.048 a 0.44409121,0.44409121 0 0 0 0.018,0.888 l 2.809,-0.056 v 0 a 0.46,0.46 0 0 0 0.106,-0.017 l 0.03,-0.01 a 0.355,0.355 0 0 0 0.069,-0.031 0.24,0.24 0 0 0 0.027,-0.016 0.425,0.425 0 0 0 0.078,-0.062 l 0.006,-0.007 a 0.474,0.474 0 0 0 0.056,-0.077 l 0.008,-0.01 0.007,-0.019 a 0.422,0.422 0 0 0 0.026,-0.067 c 0,-0.011 0.007,-0.021 0.01,-0.032 a 0.481,0.481 0 0 0 0.011,-0.1 v 0 0 a 2.878,2.878 0 0 1 1.366,-2.477 v 0 A 0.376,0.376 0 0 0 10.631,8.743 0.278,0.278 0 0 0 10.658,8.722 0.41,0.41 0 0 0 10.725,8.63 0.4,0.4 0 0 0 10.767,8.524 c 0,-0.015 0,-0.03 0.006,-0.046 a 0.491,0.491 0 0 0 0.008,-0.067 c 0,-0.014 -0.005,-0.027 -0.006,-0.041 A 0.472,0.472 0 0 0 10.764,8.296 c 0,-0.01 -0.009,-0.019 -0.012,-0.029 a 0.4,0.4 0 0 0 -0.035,-0.08 v 0 L 7.468,2.808 v 0 A 0.45,0.45 0 0 0 7.413,2.735 v 0 A 0.445,0.445 0 0 0 7.352,2.681 C 7.341,2.673 7.328,2.668 7.317,2.661 A 0.4,0.4 0 0 0 7.278,2.638 0.368,0.368 0 0 0 7.212,2.615 L 7.198,2.61 A 0.439,0.439 0 0 0 6.861,2.661 v 0 a 10.007,10.007 0 0 0 -4.827,8.76 0.445,0.445 0 0 0 0.453,0.435 z m 13.91,-8.991 -0.983,1.7 a 0.44441985,0.44441985 0 0 0 0.77,0.444 L 16.933,3.7 A 9.086,9.086 0 0 1 21.1,10.916 H 15.7 A 3.715,3.715 0 0 0 14.238,8.383 l 1.2,-2.071 A 0.445,0.445 0 0 0 14.668,5.867 L 13.253,8.3 v 0 a 0.471,0.471 0 0 0 -0.041,0.1 l -0.006,0.03 a 0.407,0.407 0 0 0 -0.01,0.076 c 0,0.011 0,0.021 0,0.032 a 0.462,0.462 0 0 0 0.013,0.1 v 0.009 a 0.445,0.445 0 0 0 0.037,0.088 v 0.012 l 0.013,0.016 a 0.4,0.4 0 0 0 0.044,0.057 0.25,0.25 0 0 0 0.022,0.024 0.449,0.449 0 0 0 0.08,0.062 v 0 0 a 2.877,2.877 0 0 1 1.415,2.45 v 0 a 0.449,0.449 0 0 0 0.011,0.083 0.331,0.331 0 0 0 0,0.033 0.431,0.431 0 0 0 0.044,0.106 0.437,0.437 0 0 0 0.069,0.091 c 0.011,0.01 0.025,0.018 0.037,0.028 a 0.425,0.425 0 0 0 0.053,0.042 c 0.012,0.007 0.026,0.01 0.038,0.016 a 0.348,0.348 0 0 0 0.069,0.029 c 0.01,0 0.021,0 0.032,0 a 0.482,0.482 0 0 0 0.085,0.011 h 6.282 a 0.382,0.382 0 0 0 0.09,-0.009 h 0.006 a 0.361,0.361 0 0 0 0.077,-0.024 c 0.013,0 0.024,-0.013 0.036,-0.019 a 0.4,0.4 0 0 0 0.04,-0.022 0.364,0.364 0 0 0 0.053,-0.044 l 0.012,-0.01 A 0.44,0.44 0 0 0 22,11.361 v 0 A 10.005,10.005 0 0 0 17,2.7 0.446,0.446 0 0 0 16.393,2.863 Z M 10.25,11.36 A 1.75,1.75 0 1 0 12,9.611 1.752,1.752 0 0 0 10.25,11.36 Z M 12,10.343 A 1.018,1.018 0 1 1 10.982,11.361 1.019,1.019 0 0 1 12,10.343 Z m 5.164,9.071 -0.984,-1.7 a 0.444,0.444 0 0 0 -0.385,-0.223 0.439,0.439 0 0 0 -0.222,0.06 0.445,0.445 0 0 0 -0.163,0.607 l 0.755,1.306 a 9.093,9.093 0 0 1 -8.33,0 l 2.7,-4.68 a 3.712,3.712 0 0 0 2.924,0 l 1.2,2.072 a 0.445,0.445 0 0 0 0.77,-0.445 l -1.405,-2.433 v 0 A 0.421,0.421 0 0 0 13.958,13.893 L 13.936,13.872 A 0.65,0.65 0 0 0 13.875,13.826 L 13.848,13.81 A 0.443,0.443 0 0 0 13.755,13.772 H 13.747 A 0.435,0.435 0 0 0 13.652,13.759 H 13.64 13.619 a 0.347,0.347 0 0 0 -0.071,0.01 l -0.033,0.007 a 0.392,0.392 0 0 0 -0.093,0.039 h -0.006 a 2.878,2.878 0 0 1 -2.828,0 v 0 a 0.464,0.464 0 0 0 -0.077,-0.032 c -0.011,0 -0.021,-0.01 -0.031,-0.013 a 0.445,0.445 0 0 0 -0.114,-0.014 0.432,0.432 0 0 0 -0.113,0.014 0.393,0.393 0 0 0 -0.043,0.018 0.486,0.486 0 0 0 -0.063,0.025 c -0.011,0.007 -0.021,0.017 -0.033,0.025 a 0.419,0.419 0 0 0 -0.059,0.045 0.243,0.243 0 0 0 -0.02,0.025 0.5,0.5 0 0 0 -0.053,0.068 v 0 0 l -3.14,5.437 v 0 A 0.376,0.376 0 0 0 6.8,19.5 v 0.006 a 0.545,0.545 0 0 0 -0.018,0.08 c 0,0.013 0,0.027 0,0.04 0,0.013 0,0.03 0,0.045 a 0.55,0.55 0 0 0 0.011,0.069 v 0.015 A 0.446,0.446 0 0 0 7,20.021 v 0 a 10.009,10.009 0 0 0 10,0 0.445,0.445 0 0 0 0.162,-0.607 z"/>

</svg>
